32x32/mimetypes/application-vnd.google-apps.site.svg

<svg xmlns="http://www.w3.org/2000/svg" width="32" height="32" version="1.1">
 <path style="opacity:0.2" d="M 6.375,3 C 5.61325,3 5,3.6244 5,4.4 V 29.6 C 5,30.37504 5.61325,31 6.375,31 h 19.25 C 26.3862,31 27,30.37504 27,29.6 V 12 L 20,10 18,3 Z"/>
 <path style="fill:#2095f2" d="M 6.375,2 C 5.61325,2 5,2.6244 5,3.4 V 28.6 C 5,29.37504 5.61325,30 6.375,30 h 19.25 C 26.3862,30 27,29.37504 27,28.6 V 11 L 20,9 18,2 Z"/>
 <path style="opacity:0.2" d="M 27,12 18,3 v 7.59375 C 18,11.373375 18.62775,12 19.40625,12 Z"/>
 <path style="fill:#7cc0f5" d="M 27,11 18,2 V 9.59375 C 18,10.373375 18.62775,11 19.40625,11 Z"/>
 <path style="opacity:0.2;fill:#f4f4f7" d="M 6.375,2 C 5.61325,2 5,2.6247906 5,3.4003906 v 1 C 5,3.6247906 5.61325,3 6.375,3 H 18 V 2 Z"/>
 <path style="opacity:0.2" d="M 9.6992188,14 C 9.3114188,14 9,14.296682 9,14.666016 v 2.667968 C 9,17.703318 9.3114188,18 9.6992188,18 H 22.300781 C 22.688581,18 23,17.703318 23,17.333984 V 14.666016 C 23,14.296682 22.688581,14 22.300781,14 Z m -0.033203,6 C 9.2966823,20 9,20.296682 9,20.666016 v 6.667968 C 9,27.703318 9.2966823,28 9.6660156,28 H 16.333984 C 16.703318,28 17,27.703318 17,27.333984 V 20.666016 C 17,20.296682 16.703318,20 16.333984,20 Z M 19.666016,20 C 19.296682,20 19,20.296682 19,20.666016 v 6.667968 C 19,27.703318 19.296682,28 19.666016,28 h 2.667968 C 22.703318,28 23,27.703318 23,27.333984 V 20.666016 C 23,20.296682 22.703318,20 22.333984,20 Z"/>
 <path style="fill:#f4f4f7" d="M 9.6992188 13 C 9.3114188 13 9 13.296682 9 13.666016 L 9 16.333984 C 9 16.703318 9.3114188 17 9.6992188 17 L 22.300781 17 C 22.688581 17 23 16.703318 23 16.333984 L 23 13.666016 C 23 13.296682 22.688581 13 22.300781 13 L 9.6992188 13 z M 9.6660156 19 C 9.2966823 19 9 19.296682 9 19.666016 L 9 26.333984 C 9 26.703318 9.2966823 27 9.6660156 27 L 16.333984 27 C 16.703318 27 17 26.703318 17 26.333984 L 17 19.666016 C 17 19.296682 16.703318 19 16.333984 19 L 9.6660156 19 z M 19.666016 19 C 19.296682 19 19 19.296682 19 19.666016 L 19 26.333984 C 19 26.703318 19.296682 27 19.666016 27 L 22.333984 27 C 22.703318 27 23 26.703318 23 26.333984 L 23 19.666016 C 23 19.296682 22.703318 19 22.333984 19 L 19.666016 19 z"/>
</svg>

<svg xmlns="http://www.w3.org/2000/svg" width="32" height="32"><path style="opacity:.2" d="M6.375 3C5.613 3 5 3.624 5 4.4v25.2c0 .775.613 1.4 1.375 1.4h19.25c.761 0 1.375-.625 1.375-1.4V12l-7-2-2-7z"/><path style="fill:#2095f2" d="M6.375 2C5.613 2 5 2.624 5 3.4v25.2c0 .775.613 1.4 1.375 1.4h19.25c.761 0 1.375-.625 1.375-1.4V11l-7-2-2-7z"/><path style="opacity:.2" d="m27 12-9-9v7.594c0 .78.628 1.406 1.406 1.406z"/><path style="fill:#7cc0f5" d="m27 11-9-9v7.594c0 .78.628 1.406 1.406 1.406z"/><path style="opacity:.2;fill:#f4f4f7" d="M6.375 2C5.613 2 5 2.625 5 3.4v1C5 3.625 5.613 3 6.375 3H18V2z"/><path style="opacity:.2" d="M9.7 14c-.389 0-.7.297-.7.666v2.668c0 .37.311.666.7.666h12.6c.389 0 .7-.297.7-.666v-2.668c0-.37-.311-.666-.7-.666zm-.034 6a.664.664 0 0 0-.666.666v6.668c0 .37.297.666.666.666h6.668c.37 0 .666-.297.666-.666v-6.668a.664.664 0 0 0-.666-.666zm10 0a.664.664 0 0 0-.666.666v6.668c0 .37.297.666.666.666h2.668c.37 0 .666-.297.666-.666v-6.668a.664.664 0 0 0-.666-.666z"/><path style="fill:#f4f4f7" d="M9.7 13c-.389 0-.7.297-.7.666v2.668c0 .37.311.666.7.666h12.6c.389 0 .7-.297.7-.666v-2.668c0-.37-.311-.666-.7-.666H9.7zm-.034 6a.664.664 0 0 0-.666.666v6.668c0 .37.297.666.666.666h6.668c.37 0 .666-.297.666-.666v-6.668a.664.664 0 0 0-.666-.666H9.666zm10 0a.664.664 0 0 0-.666.666v6.668c0 .37.297.666.666.666h2.668c.37 0 .666-.297.666-.666v-6.668a.664.664 0 0 0-.666-.666h-2.668z"/></svg>
